X: 1151
T: I'm the Boy for Bewitching Them   #2
R: slipjig
%S: s:2 b:10(5+5)
B: O'Neill's 1850 Music of Ireland #1151
Z: Stephen Foy (shf@access.digex.net)
%: abc 1.6
Z: Fermata (Fine) above repeat sign.
N: Compacted via repeats and multiple endings [JC]
M: 9/8
K: G
"^A"|: B | G>AG G<ge dBG | A>BA ABd e2g    | G>AG gfe dBG | A>Bc BAB HE2 "^B":: d | g>dg gag fed |
| efe efg a2 [1 b | gdg gag fed | gfe dcB A2 :|[2 g/a/ | bgb afa gfe | def gdB "_D.C"A2 |]
